X:1
T:The Love of God
T:The Love of God
T:Claudia Lehman Mays
T:Frederick Martin Lehman, 1917
T:Public Domain Courtesy of the Cyber Hymnal™
T:Public Domain Courtesy of the Cyber Hymnal™
C:Claudia Lehman Mays
Z:Public Domain
Z:Courtesy of the Cyber Hymnal™
%%score ( 1 2 ) ( 3 4 )
L:1/8
Q:1/4=105
M:3/4
K:Eb
V:1 treble 
V:2 treble 
V:3 bass 
V:4 bass 
V:1
 [B,E][B,E] [B,F] | [EG]3 [GB] [Ac][GB] | ([GB]2 [EG])[EB] [EB][EG] | [DF]3 [FA] [EG][DF] | %4
w: 1.~The love of|God is great- er|far * Than tongue or|pen can ev- er|
w: 2.~When years of|time shall pass a-|way, * And earth- ly|thrones and king- doms|
w: 3.~Could we with|ink the o- cean|fill, * And were the|skies of parch- ment|
 [EG]3 [B,E] [B,E][B,F] | [EG]3 [GB] [Ac][GB] | ([GB]2 [EG])[EB] [EB][EG] | [DF]3 [EA] [EG][DF] | %8
w: tell; It goes be-|yond the high- est|star, * And reach- es|to the low- est|
w: fall, When men, who|here re- fuse to|pray, * On rocks and|hills and mount- ains|
w: made, Were ev- ery|stalk on earth a|quill, * And eve- ry|man a scribe by|
 E3 [Ee] [Ee][Ee] | [Ec]3 [Ee] [Ee][Ee] | (B2 G)[EB] [EB][Ec] | (B2 F2) [FA]2 | %12
w: hell; The guilt- y|pair, bowed down with|care, * God gave His|Son * to|
w: call, God’s love so|sure, shall still en-|dure, * All mea- sure-|less * and|
w: trade, To write the|love of God a-|bove, * Would drain the|o- * cean|
 [EG]3 [Ee] [Ee][Ee] | [Ec]3 [Ee] [Ee][Ee] | (B2 G)[EB] [EB][Ec] | (B2 F2) [DG]2 | E3 || %17
w: win; His err- ing|child He re- con-|ciled, * And par- doned|from * his|sin.|
w: strong; Re- deem- ing|grace to A- dam’s|race— * The saints’ and|an- * gels’|song.|
w: dry. Nor could the|scroll con- tain the|whole, * Though stretched from|sky * to|sky.|
"^Refrain" [Ee][Ee]>[Ee] | [Ee]3 [Ee] [Ed]>[Ec] | (B2 G)[EB] [EB]>[Ec] | (B2 F2) [Dc]2 x2 | %21
w: ||||
w: O love of|God, how rich and|pure! * How mea- sure-|less * and|
w: ||||
 [EB]3 [Ee] [Ee]>[Ee] | [Ee]3 [Ee] [Ed]>[Ec] | (B2 G)[EB] [EB]>[Ec] | (B2 F2) [DG]2 | E3 |] %26
w: |||||
w: strong! It shall for-|ev- er- more en-|dure * The saints’ and|an- * gels’|song.|
w: |||||
V:2
 x3 | x6 | x6 | x6 | x6 | x6 | x6 | x6 | E3 x3 | x6 | E3 x3 | D4 x2 | x6 | x6 | E3 x3 | D4 x2 | %16
 E3 || x3 | x6 | E3 x3 | D4 x4 | x6 | x6 | E3 x3 | D4 x2 | E3 |] %26
V:3
 [E,G,][E,G,] [E,A,] | [E,B,]3 [E,E] [E,E][E,E] | [E,B,]3 [E,G,] [E,G,][E,B,] | %3
 [B,,B,]3 [B,,B,] [B,,B,][B,,B,] | [E,B,]3 [E,G,] [E,G,][E,A,] | [E,B,]3 [E,E] [E,E][E,E] | %6
 [E,B,]3 [E,G,] [E,G,][E,B,] | [B,,A,]3 [B,,C] [B,,B,][B,,A,] | [E,G,]3 [E,G,] [F,A,][G,B,] | %9
 [A,C]3 [A,C] [A,,C][C,A,] | (G,2 B,)[E,G,] [E,G,][E,G,] | [F,B,]4 [D,B,]2 | %12
 [E,B,]3 [E,G,] [F,A,][G,B,] | [A,C]3 [A,C] [A,,C][C,A,] | (G,2 B,)[E,G,] [E,G,][E,G,] | %15
 (F,2 A,2) [B,,B,]2 | [E,G,]3 || [E,G,][F,A,]>[G,B,] | [A,C]3 [A,C] [A,,C]>[C,A,] | %19
 (G,2 B,)[E,G,] [E,G,]>[E,A,] | B,4 B,2 [B,,B,]2 | [E,G,]3 [E,G,] [F,A,]>[G,B,] | %22
 [A,C]3 [A,C] [A,B,]>A, | (G,2 B,)[E,G,] [E,G,]>[E,G,] | (F,2 A,2) [B,,B,]2 | [E,G,]3 |] %26
V:4
 x3 | x6 | x6 | x6 | x6 | x6 | x6 | x6 | x6 | x6 | E,3 x3 | x6 | x6 | x6 | E,3 x3 | B,,4 x2 | x3 || %17
 x3 | x6 | E,3 x3 | F,2 x6 | x6 | x11/2 A,/ | E,3 x3 | B,,4 x2 | x3 |] %26

